site/components/footer/SVG/twitter.svg

<?xml version="1.0" encoding="UTF-8" standalone="no"?>
<svg width="25px" height="20px" viewBox="0 0 25 20" version="1.1" xmlns="http://www.w3.org/2000/svg" xmlns:xlink="http://www.w3.org/1999/xlink">
    <!-- Generator: sketchtool 39.1 (31720) - http://www.bohemiancoding.com/sketch -->
    <g id="Symbols" stroke="none" stroke-width="1" fill="none" fill-rule="evenodd">
        <g id="Footer" transform="translate(-402.000000, -163.000000)" fill="#FFFFFF">
            <g id="Twitter" transform="translate(402.000000, 163.000000)">
                <g id="Twitter_Logo_White_On_Blue">
                    <g id="Twitter_Logo_White-on-Blue">
                        <g id="Logo_FIXED">
                            <path d="M7.77134283,19.7089353 C16.8881336,19.7089353 21.8746336,12.1893336 21.8746336,5.66836875 C21.8746336,5.45478743 21.8746336,5.24216819 21.860138,5.03051103 C22.8302165,4.33195662 23.6676045,3.46701821 24.3330941,2.47619389 C23.4284493,2.87526556 22.4687898,3.13697663 21.4861505,3.25259085 C22.5208917,2.63588158 23.2953256,1.66590483 23.6653283,0.523175511 C22.6923399,1.09797414 21.6278657,1.50306354 20.5178418,1.72096264 C18.981384,0.0944680419 16.5399671,-0.303622231 14.5625975,0.749917989 C12.5852279,1.80345821 11.5636678,4.04661859 12.0707495,6.22156361 C8.08531426,6.02265354 4.37209198,4.1485965 1.8551892,1.06578751 C0.539586956,3.32055659 1.2115711,6.20507309 3.38979422,7.6531357 C2.60098134,7.62986068 1.82936703,7.41801651 1.14007099,7.03548161 L1.14007099,7.09801669 C1.14071665,9.44701961 2.80393024,11.4702141 5.11670807,11.935345 C4.3869682,12.1334754 3.62131914,12.162438 2.87858134,12.0200078 C3.52793567,14.0301956 5.38881495,15.4072766 7.50945495,15.4469297 C5.75426015,16.8202306 3.58602605,17.5657408 1.35364007,17.5635014 C0.959265493,17.5627476 0.565274494,17.5389756 0.173695026,17.4923076 C2.44046122,18.9405011 5.07796934,19.708663 7.77134283,19.705087" id="Shape"></path>
                        </g>
                    </g>
                </g>
            </g>
        </g>
    </g>
</svg>

<svg width="25" height="20" viewBox="0 0 25 20" xmlns="http://www.w3.org/2000/svg"><path d="M7.771 19.709c9.117 0 14.104-7.52 14.104-14.04 0-.214 0-.427-.015-.638a10.06 10.06 0 0 0 2.473-2.555c-.905.4-1.864.661-2.847.777a4.956 4.956 0 0 0 2.18-2.73 9.96 9.96 0 0 1-3.148 1.198A4.977 4.977 0 0 0 14.563.75a4.932 4.932 0 0 0-2.492 5.472A14.094 14.094 0 0 1 1.855 1.066 4.925 4.925 0 0 0 3.39 7.653a4.937 4.937 0 0 1-2.25-.618v.063a4.942 4.942 0 0 0 3.977 4.837 4.97 4.97 0 0 1-2.238.085 4.96 4.96 0 0 0 4.63 3.427 9.974 9.974 0 0 1-7.335 2.045 14.079 14.079 0 0 0 7.597 2.213" fill="#FFF" fill-rule="evenodd"/></svg>
